Gurmukhi/0A08.svg

<svg enable-background="new 0 0 336 592" viewBox="0 0 336 592" xmlns="http://www.w3.org/2000/svg"><path d="m104.020332 373.045654c-16.432762-12.113311-28.808464-27.078247-37.351783-45.263092-1.555855-3.311767-1.279961-5.681427.98526-8.565857 12.773079-16.26474 28.756553-28.038482 48.156242-35.187286.774773-.285492 1.538055-.603973 2.295578-.932709.132675-.057586.209854-.243042.367538-.436889-.212135-1.735566-1.86544-1.673432-2.955963-2.012635-26.988212-8.394806-42.314132-27.031875-47.72258-54.328384-1.802795-9.09877-1.673385-9.123505-10.709438-9.119949-4.332226.001709-8.666779-.087037-12.995853.029449-2.832356.076202-4.773182-.818527-5.785698-3.640732-1.460896-4.07196-3.122357-8.071609-4.668-12.113663-1.279129-3.345092.194943-5.143295 3.452279-5.633499 1.632045-.245605 3.32574-.100204 4.99155-.100189 69.315678.000977 138.631367.006134 207.947041.008713 7.297744.000275 7.205001-.000748 6.841049-7.136902-.727295-14.258697-3.062821-28.096313-10.053437-40.80603-9.42456-17.134888-31.797866-22.822235-47.27481-11.612473-11.262146 8.157028-12.637528 20.069809-10.852326 32.737305.604737 4.291 2.23085 8.338165 3.901444 12.336334 1.52211 3.642838-.067124 5.339447-3.665711 5.744324-2.804428.315536-5.180786-.394882-7.298263-2.403732-17.118439-16.240296-21.711624-43.15799-4.643952-62.400956 9.999008-11.273399 23.326401-15.734794 38.188614-14.92337 31.106629 1.698318 47.516556 21.373505 58.033005 48.092865 4.548309 11.556 6.565979 23.66716 7.911285 35.89444.424958 3.86232 2.270874 4.604614 5.564331 4.55278 7.662964-.120636 15.331208.052749 22.992463-.115051 3.309021-.07248 5.335754 1.081451 6.392761 4.264022 1.203125 3.622605 2.746002 7.132294 3.952636 10.753876 1.45279 4.360504.115296 6.355652-4.512329 6.424866-8.82904.13208-17.668762.253204-26.489563-.046738-4.648437-.15805-5.953613 1.500122-5.942077 6.041672.135864 53.486008.095733 106.972458.09082 160.458816-.000153 1.662262.14563 3.389801-.243408 4.972138-.653809 2.659485-2.428558 4.158844-5.196472 2.769348-5.94925-2.986603-11.803955-6.162018-17.686615-9.280365-3.026703-1.604431-2.34256-4.515564-2.344086-7.099884-.023529-39.823212-.014221-79.646393-.013123-119.469589.000306-10.997208-.112365-21.996124.058564-32.990662.059295-3.814834-1.165436-5.398132-5.13797-5.361297-15.328125.142135-30.659455.168609-45.986939-.00145-4.287887-.047577-5.355377 1.72522-5.32492 5.690292.148483 19.327271.071701 38.656266.080902 57.984635.00563 11.839935-3.333481 15.327484-14.944016 15.196533-14.68573-.16568-29.273956.35849-43.570221 4.257141-18.957184 5.169678-36.026115 13.634094-50.133415 27.638855-2.935005 2.913696-3.340096 5.145233-.686623 8.464813 13.534279 16.931732 30.104981 28.366364 52.33107 30.451508 20.028412 1.878967 36.888764-4.886871 51.523392-18.05426 5.960037-5.362488 7.386765-5.318665 11.936401 1.257629 2.368653 3.423767 4.754746 6.838348 7.238099 10.178955 1.890518 2.543121 1.902053 4.696533-.465943 7.029297-19.346344 19.058899-42.031433 27.984466-69.407257 23.573547-15.15712-2.442199-28.509537-8.785217-41.169533-17.76651m71.039238-135.545395c.009568-4.499435.02208-8.998886.028031-13.498321.008804-6.660568-.102585-6.797333-6.598664-6.799896-21.497497-.008515-42.995346.076675-64.49237-.022385-13.442505-.061951-10.825279.397903-9.692444 10.718994 2.202576 20.067322 17.333549 37.49707 36.779419 43.000549 12.513244 3.541443 25.277405 3.561921 38.096588 3.787384 4.814102.084687 6.031708-1.831665 5.947784-6.191101-.192443-9.995147-.065795-19.99649-.068344-30.995224z"/></svg>

<svg version="1.1" id="Layer_1" xmlns="http://www.w3.org/2000/svg" xmlns:xlink="http://www.w3.org/1999/xlink" x="0px" y="0px"
	 width="100%" viewBox="0 0 336 592" enable-background="new 0 0 336 592" xml:space="preserve">
<path fill="#000000" opacity="1.000000" stroke="none" 
	d="
M104.020332,373.045654 
	C87.587570,360.932343 75.211868,345.967407 66.668549,327.782562 
	C65.112694,324.470795 65.388588,322.101135 67.653809,319.216705 
	C80.426888,302.951965 96.410362,291.178223 115.810051,284.029419 
	C116.584824,283.743927 117.348106,283.425446 118.105629,283.096710 
	C118.238304,283.039124 118.315483,282.853668 118.473167,282.659821 
	C118.261032,280.924255 116.607727,280.986389 115.517204,280.647186 
	C88.528992,272.252380 73.203072,253.615311 67.794624,226.318802 
	C65.991829,217.220032 66.121239,217.195297 57.085186,217.198853 
	C52.752960,217.200562 48.418407,217.111816 44.089333,217.228302 
	C41.256977,217.304504 39.316151,216.409775 38.303635,213.587570 
	C36.842739,209.515610 35.181278,205.515961 33.635635,201.473907 
	C32.356506,198.128815 33.830578,196.330612 37.087914,195.840408 
	C38.719959,195.594803 40.413654,195.740204 42.079464,195.740219 
	C111.395142,195.741196 180.710831,195.746353 250.026505,195.748932 
	C257.324249,195.749207 257.231506,195.748184 256.867554,188.612030 
	C256.140259,174.353333 253.804733,160.515717 246.814117,147.806000 
	C237.389557,130.671112 215.016251,124.983765 199.539307,136.193527 
	C188.277161,144.350555 186.901779,156.263336 188.686981,168.930832 
	C189.291718,173.221832 190.917831,177.268997 192.588425,181.267166 
	C194.110535,184.910004 192.521301,186.606613 188.922714,187.011490 
	C186.118286,187.327026 183.741928,186.616608 181.624451,184.607758 
	C164.506012,168.367462 159.912827,141.449768 176.980499,122.206802 
	C186.979507,110.933403 200.306900,106.472008 215.169113,107.283432 
	C246.275742,108.981750 262.685669,128.656937 273.202118,155.376297 
	C277.750427,166.932297 279.768097,179.043457 281.113403,191.270737 
	C281.538361,195.133057 283.384277,195.875351 286.677734,195.823517 
	C294.340698,195.702881 302.008942,195.876266 309.670197,195.708466 
	C312.979218,195.635986 315.005951,196.789917 316.062958,199.972488 
	C317.266083,203.595093 318.808960,207.104782 320.015594,210.726364 
	C321.468384,215.086868 320.130890,217.082016 315.503265,217.151230 
	C306.674225,217.283310 297.834503,217.404434 289.013702,217.104492 
	C284.365265,216.946442 283.060089,218.604614 283.071625,223.146164 
	C283.207489,276.632172 283.167358,330.118622 283.162445,383.604980 
	C283.162292,385.267242 283.308075,386.994781 282.919037,388.577118 
	C282.265228,391.236603 280.490479,392.735962 277.722565,391.346466 
	C271.773315,388.359863 265.918610,385.184448 260.035950,382.066101 
	C257.009247,380.461670 257.693390,377.550537 257.691864,374.966217 
	C257.668335,335.143005 257.677643,295.319824 257.678741,255.496628 
	C257.679047,244.499420 257.566376,233.500504 257.737305,222.505966 
	C257.796600,218.691132 256.571869,217.107834 252.599335,217.144669 
	C237.271210,217.286804 221.939880,217.313278 206.612396,217.143219 
	C202.324509,217.095642 201.257019,218.868439 201.287476,222.833511 
	C201.435959,242.160782 201.359177,261.489777 201.368378,280.818146 
	C201.374008,292.658081 198.034897,296.145630 186.424362,296.014679 
	C171.738632,295.848999 157.150406,296.373169 142.854141,300.271820 
	C123.896957,305.441498 106.828026,313.905914 92.720726,327.910675 
	C89.785721,330.824371 89.380630,333.055908 92.034103,336.375488 
	C105.568382,353.307220 122.139084,364.741852 144.365173,366.826996 
	C164.393585,368.705963 181.253937,361.940125 195.888565,348.772736 
	C201.848602,343.410248 203.275330,343.454071 207.824966,350.030365 
	C210.193619,353.454132 212.579712,356.868713 215.063065,360.209320 
	C216.953583,362.752441 216.965118,364.905853 214.597122,367.238617 
	C195.250778,386.297516 172.565689,395.223083 145.189865,390.812164 
	C130.032745,388.369965 116.680328,382.026947 104.020332,373.045654 
M175.059570,237.500259 
	C175.069138,233.000824 175.081650,228.501373 175.087601,224.001938 
	C175.096405,217.341370 174.985016,217.204605 168.488937,217.202042 
	C146.991440,217.193527 125.493591,217.278717 103.996567,217.179657 
	C90.554062,217.117706 93.171288,217.577560 94.304123,227.898651 
	C96.506699,247.965973 111.637672,265.395721 131.083542,270.899200 
	C143.596786,274.440643 156.360947,274.461121 169.180130,274.686584 
	C173.994232,274.771271 175.211838,272.854919 175.127914,268.495483 
	C174.935471,258.500336 175.062119,248.498993 175.059570,237.500259 
z"/>
</svg>
